X:3267
T:Killala Bay
O:england
R:Hornpipe
C:Ed Reavy
M:4/4
L:1/8
N:For the great bay in the west, where so many
N:of Ed's friends came from.
K:G
DG|BGBG AGFD|GABG B^cdf|eBcA FGAF|GBAG (3FED (3CB,A,|
G,B,DG BGFG|EA^GA cABc|dfeg fdcA|1GBAF G2:|
2GBAF GFGg||bgdB GFGf|afcA FEFA|B^cdf egfa|
gbag (3fed (3cBA|GFGA BGBG|ABcA B^cdf|
(3efg fd cAFA|1GBAF GFGg:|2GBAF G2||


